X: 80
T: THE BRAVE VOLUNTEERS
B: O'Neill's 80
M: 2/4
L: 1/8
Z: Transcribed by John Chambers <jc@trillian.mit.edu>
N: "Slow"
N: "Collected by F.O'Neill"
K:D
f>e \
|dB A.F|AB d.e|f2 efed|BcBHA de|
|ea ab|af de|ff gfe/d/|He2 de|
|fa ab|Taf de|Tf2 efed|BA HzA|
|Bc dB|AB de|f2 d/f/e|d2||
